X:1
T:Title
%%score { 1 | 2 }
L:1/8
M:4/4
K:G
V:1 treble nm="Grand Piano"
V:2 bass 
V:1
 z4 z2[Q:1/4=100] (3DDD | G3 D B,2 D>G | B2 c2 B4 | d3 e d2 B2 | [GB]2 [FA]2 [FA]2 (3DDD | %5
 G3 D B,2 D>G | B2 c2 d2 [Ge]>[Ge] | [Gd]2 [GB]>[Ac] [GB]2 [FA]2 | G6 z2 | [Fd]2 [FA][GB] [Ac]4 | %10
 d2 GA B3 D | E2 F>F G2 B>e | d6 B>c | d4 e4 | d6 G>A | B4 c4 | B6 D2 | E2 F>F G2 [FA]>[FA] | %18
 B2 e2 d2 B>G | [Fd]4 [Fd]3 [Fd] |[M:2/4] [DG]4 |] %21
V:2
 z4 z2 (3D,D,D, | G,3 D, B,,2 D,>[K:treble][G,B,D] | [G,DG]2 [G,EG]2 [G,DG]4 | %3
 [G,B,G]3 [G,CG] [G,B,G]2 [G,DG]2 | [D,D]2 [D,D]2 [D,D]2 (3D,D,D, | %5
 G,3 D, B,,2 D,>[K:treble][G,B,D] | [G,DG]2 [G,EG]2 [G,B,G]2[K:bass] [C,C]>[C,C] | %7
 [D,B,]2 [D,D]>[D,D] [D,D]2 [D,C]2 | [G,B,]6 z2 | [D,A,]2 [D,D][D,D] [D,D]4 | %10
 [G,B,G]2 [G,B,D][G,CD] [G,DG]3 [G,B,] | [G,C]2 [A,CD]>[A,CD] [G,B,D]2 [G,DG]>[G,CG] | %12
 [G,B,G]6 [G,DG]>[A,DG] | [B,DG]4 [_B,^CG]4 | [B,DG]6 [G,B,]>[G,CG] | [G,DG]4 [G,EG]4 | %16
 [G,DG]6[K:bass] D,2 | E,2 F,>F, G,2 [D,D]>[D,D] | [G,DG]2 [CG]2 [B,DG]2 [G,DG]>[K:bass][G,B,D] | %19
 [D,D]4 [D,C]3 [D,C] |[M:2/4] [G,B,]4 |] %21

